!!!COM: Scarlatti, Domenico
!!!CDT: 1685-1757
!!!OTL: Sonata in C major, L.54, K.200
!!!SCT: K. 200
!!!SCT: L. 054
!!!OMD: Allegro ([quarter]=126)
**kern	**kern	**dynam
*staff2	*staff1	*staff1/2
*Icemba	*Icemba	*
*I"L.54 (K.200)	*I"L.54 (K.200)	*
*>[A,A,B,B]	*>[A,A,B,B]	*>[A,A,B,B]
*>A	*>A	*>A
*clefF4	*clefG2	*
*k[]	*k[]	*
*C:	*C:	*
*M2/4	*M2/4	*
*MM126	*MM126	*
=1-	=1-	=1-
4c' 4e'	8ee'L	f
.	(16ddL	.
.	16eeJJ	.
4d' 4f'	16ffLL	.
.	16gg	.
.	16aa	.
.	16bbJJ	.
=2	=2	=2
4.e^ 4.g^	8ccc'L)	.
.	8gg'J	.
.	([4cc^	.
(8e 8g	.	.
=3	=3	=3
8f' 8a'L)	16ccLL]	.
.	16ee	.
8e' 8g'J	16dd	.
.	16ccJJ	.
8d' 8f'L	16ddLL	.
.	16aa	.
8G'J	16gg	.
.	16ffJJ	.
=4	=4	=4
4.C^ 4.c^	16eeLL	.
.	16dd	.
.	16cc	.
.	16bJJ)	.
.	(8bqq	.
.	([4cc)	p
(8e 8g	.	.
!!LO:LB:g=z
=5	=5	=5
8f' 8a'L)	16ccLL]	.
.	16ee	.
8e' 8g'J	16dd	.
.	16ccJJ	.
8d' 8f'L	16ddLL	.
.	16aa	.
8G'J	16gg	.
.	16ffJJ	.
=6	=6	=6
(4.c	16eeLL	<
.	16dd	.
.	16cc	.
.	16bJJ	.
.	16ccLL	.
.	16dd	.
8d	16ee	.
.	16ffJJ	.
=7	=7	=7
4.e	16ggLL	mf
.	16ee	.
.	16aa	.
.	16ggJJ	.
.	16ffLL	.
.	16ee	.
8f	16dd	.
.	16ccJJ	.
=8	=8	=8
[4G)	16ddLL	.
.	16cc	.
.	16b	.
.	16aJJ	.
16GLL]	8g'L)	.
(16f	.	p
16e	(8gJ	.
16dJJ	.	.
!!LO:LB:g=z
=9	=9	=9
16eLL	8cc'L)	.
16d	.	.
16c	8dd'J	.
16BJJ	.	.
8c'L)	16ee'LL	.
.	(32ffL	.
.	32ggJ	.
8F'J	16ff	.
.	16eeJJ	.
=10	=10	=10
[4G^	16ddLL	.
.	16cc	.
.	16b	.
.	16aJJ	.
16GLL]	8g'L)	.
(16f	.	f
16e	(8gJ	.
16dJJ	.	.
=11	=11	=11
16eLL	8cc'L)	.
16d	.	.
16c	8dd'J	.
16BJJ	.	.
8c'L)	16ee'LL	.
.	(32ffL	.
.	32ggJ	.
8F'J	16ff	.
.	16eeJJ	.
=12	=12	=12
4GG\ 4G\	4dd)MM	.
4r	8r	.
.	(8d 8f	>
=13	=13	=13
8r	8c#) 8eL	.
8B-'L	8d' 8f'	] p
8B-'	8c#' 8e'	.
8B-'J	8d' 8f'J	.
!!LO:LB:g=z
=14	=14	=14
8r	8e' 8g'	.
8G'L	4f~ 4a	mf
8G'	.	.
8G'J	[8g~ [8b-	<
=15	=15	=15
(4A	8g] 8b-XL]	[
.	(16f 16aL	.
.	16e 16gJJ	.
4AA)	8d) 8fL	.
.	8c#' 8e'J	.
=16	=16	=16
.	(8c#qq 8eqq	>
(8DL	4d 4f)	.
8DD	.	]
8DJ)	8r	.
8r	(8e 8g	>
=17	=17	=17
8r	8d#) 8f#L	]
8c'L	8e' 8g'	p
8c'	8d#' 8f#'	.
8c'J	8e' 8g'J	.
=18	=18	=18
8r	8f#' 8a'	.
8A'L	4g~ 4b	mf <
8A'	.	.
8A'J	[8a~/ [8cc/	.
=19	=19	=19
8r	8a] 8ccL]	[
8B'L	(16g 16bL	.
.	16f# 16aJJ	.
8B'	8e) 8gL	.
(8BJ	(8d# 8f#J	.
!!LO:LB:g=z
=20	=20	=20
4.E)	8e')	.
.	(8ee	f
.	16bLL	.
.	16b	.
(8E 8e	16cc	.
.	16ddJJ	.
=21	=21	=21
8E' 8d'L)	16g#LL	.
.	16g#	.
8E' 8c'	16a	.
.	16bJJ	.
8E' 8B'	16dLL	.
.	16d	.
8E' 8A'J	16e	.
.	16fJJ	.
=22	=22	=22
4E 4G#	8e')	.
.	(8ee	p
8r	16bLL	.
.	16b	.
(8E 8e	16cc	.
.	16ddJJ	.
=23	=23	=23
8E' 8d'L)	16g#LL	.
.	16g#	.
8E' 8c'	16a	.
.	16bJJ	.
8E' 8B'	16dLL	.
.	16d	.
8E' 8A'J	16e	.
.	16fJJ	.
=24	=24	=24
4E 4G#	8e'L)	.
.	8dd'J	f
.	(8ddq	.
8r	(24ccLL<)	.
.	24b	.
.	24aJ	.
(<8E 8d	8g#J	.
!!LO:LB:g=z
=25	=25	=25
4F' 4d')	8aL)	.
.	8dd'J	.
*	*Xtuplet	*
.	(8ddq	.
8r	(24ccLL<)	.
.	24b	.
.	24aJ	.
(<8E 8d	8g#J	.
=26	=26	=26
8F' 8d'L)	8a'L)	.
8D'J	8ff'J	.
(8G#L	(16eeLL	.
.	16dd	.
8EJ	16cc	.
.	16bJJ	.
=27	=27	=27
4A')	8cc')	.
.	(8ee	.
8r	16aLL<	.
.	16a	.
(8D 8d	16b	.
.	16ccJJ	.
=28	=28	=28
8D' 8c'L)	16f#LL	.
.	16f#	.
8D' 8B'	16g	.
.	16aJJ	.
8D' 8A'	16cLL	.
.	16c	.
8D' 8G'J	16d	.
.	16eJJ	.
=29	=29	=29
4D 4F#	8d')	.
.	(8dd	p
8r	16aLL<	.
.	16a	.
(8D 8d	16b	.
.	16ccJJ	.
!!LO:LB:g=z
=30	=30	=30
8D 8cL)	16f#LL	.
.	16f#	.
8D' 8B'	16g	.
.	16aJJ	.
8D' 8A'	16cLL	.
.	16c	.
8D' 8G'J	16d	.
.	16eJJ	.
=31	=31	=31
4D 4F#	8d'L)	.
.	8cc'J	f
8r	(24bLL	.
.	24a	.
.	24gJ	.
(<8D 8c	8f#J	.
=32	=32	=32
4E' 4c')	8g'L)	.
.	8cc'J	.
8r	(24bLL	.
.	24a	.
.	24gJ	.
(<8D 8c	8f#J	.
=33	=33	=33
8E' 8c'L)	8g'L)	.
8C'J	8ee'J	.
(8F#L	(16ddLL	.
.	16cc	.
8DJ	16b	.
.	16aJJ	.
=34	=34	=34
4.G	16bLL	.
.	16g	.
.	16a	.
.	16bJJ	.
.	16ccLL	.
.	16dd	.
8A	16ee	.
.	16ff#JJ	.
!!LO:LB:g=z
=35	=35	=35
4B	16ggLL	.
.	16ff#	.
.	16ee	.
.	16ddJJ	.
4c)	16ccLL<	.
.	16b	.
.	16a	.
.	16gJJ)	.
=36	=36	=36
8r	4dMM	.
(8DD 8DL	.	.
8EE) 8E	8r	.
8FF#' 8F#'J	8dd'	.
=37	=37	=37
8r	(32bLLL	.
.	32cc	.
.	32dd	.
.	32eeJJ	.
8GG (8GL	8dd^J	.
8BB' 8B')	8gg'L)	.
8D' 8d'J	8dd'J	.
=38	=38	=38
8r	(32bLLL	.
.	32cc	.
.	32dd	.
.	32eeJJ	.
8GG (8GL	8dd^J	.
8BB' 8B')	8gg'L)	.
8D' 8d'J	8dd'J	.
=39	=39	=39
8G' 8g'L	(16bLL	.
.	16dd	.
(8cJ	16cc	.
.	16aJJ	.
8d'L)	8b'L)	.
8D'J	8a'JM<	.
!!LO:LB:g=z
=40	=40	=40
8r	4g^	p
8GG' 8G'L	.	.
8BB' 8B'	8r	.
8D' 8d'J	8dd'	.
=41	=41	=41
8r	(32bLLL	.
.	32cc	.
.	32dd	.
.	32eeJJ	.
8GG (8GL	8dd^J	.
8BB' 8B')	8gg'L)	.
8D' 8d'J	8dd'J	.
=42	=42	=42
8r	(32bLLL	.
.	32cc	.
.	32dd	.
.	32eeJJ	.
8GG (8GL	8dd^J	.
8BB' 8B')	8gg'L)	.
8D' 8d'J	8dd'J	.
=43	=43	=43
8G' 8g'L	(16bLL	.
.	16dd	.
(8cJ	16cc	.
.	16aJJ	.
8d'L)	8b'L)	.
8D'J	8a'JMM<	sf
=44	=44	=44
4GG'\ 4G'\	8g'L	f
.	(16bL	.
.	16ccJJ	.
8r	16ddLL	.
.	16g	.
8D' 8d'	16a	.
.	16f#JJ	.
=45	=45	=45
8BB 8BL	8g'L)	.
8GG' 8G'J	(<16bL	.
.	16ccJJ	.
8r	16ddLL	.
.	16g	.
8D' 8d'	16a	.
.	16f#JJ	.
!!LO:LB:g=z
=46	=46	=46
8BB' 8B'L	8g'L<)	.
8GG' 8G'J	(16aL	.
.	16bJJ	.
8r	16ccLL	.
.	16dd	.
8AA' 8A'	16ee	.
.	16ff#JJ	.
=47	=47	=47
8BB' 8B'L	16ggLL	.
.	16dd	.
8C' 8c'	16ee	.
.	16ccJJ	.
8D' 8d'	16bLL	.
.	16gg	.
8C' 8c'J	16a	.
.	16ff#JJ	.
=48	=48	=48
8BB' 8B'L	16ggLL	.
.	16dd	.
8C' 8c'	16ee	.
.	16ccJJ	.
8D' 8d'	16bLL	.
.	16gg	.
8C' 8c'J	16a	.
.	16ff#JJ	.
=49	=49	=49
8BB' 8B'L	16ggLL	.
.	16dd	.
8C' 8c'	16ee	.
.	[16gJJ	.
8D' 8d'	8gL])	.
8D'J	8f#'Jm<	.
=50	=50	=50
.	(8f#qq	.
4GG^\ 4G^\	4g)	.
4r	4r	.
!!LO:LB:g=z
=51:|!|:	=51:|!|:	=51:|!|:
*>B	*>B	*>B
8r	(16bLLm	p
.	16a	.
8G 8gL	16b	.
.	16ccJJ	.
8G 8g	16ddLL	.
.	16ee	.
8G 8gJ	16ff#	.
.	16ggJJ)	.
=52	=52	=52
8G (8gL	2aMM<	>
8G 8fn)	.	]
8G 8f	.	.
8G 8fJ	.	.
=53	=53	=53
8G 8eL	(16gLLM<	.
.	16f	.
8G 8e	16g	.
.	16aJJ	.
8G 8e	16bLL	.
.	16cc	.
8G 8eJ	16dd	.
.	16eeJJ)	.
=54	=54	=54
8G (8eL	2fMM<	>
8G 8d)	.	]
8G 8d	.	.
8G 8dJ	.	.
=55	=55	=55
8G 8cL	(<16eLLm<	.
.	16d	.
8G 8c	16e	.
.	16fJJ	.
8G 8c	16gLL	.
.	16a	.
8G 8cJ	16b	.
.	16ccJJ	.
!!LO:LB:g=z
=56	=56	=56
8B 8dL	8ddL>)	.
8B 8d	8g'J	.
.	[16fqq	.
8B 8d	(4fT]	.
(8B 8dJ	.	.
.	32eqLLL	.
.	32fqJJJ	.
=57	=57	=57
8c'L)	8e'L)	]
(8cJ	(24ccLM	p
.	24b	.
.	24ccJJ	.
8B' 8d'L)	8dd'L)	.
(8B 8dJ	(24fLM<	mf
.	24e	.
.	24fJJ	.
=58	=58	=58
8c'L)	8e'L)	.
(8cJ	(24ccLM	p
.	24b	.
.	24ccJJ	.
8B' 8d'L)	8dd'L)	.
(8B 8dJ	(24fLM<	mf
.	24e	.
.	24fJJ	.
=59	=59	=59
8c'L)	8e')	.
(8c	(4cc	>
8d)	.	.
(8dJ	[8b-	]]
=60	=60	=60
8eL)	16b-XLL]	.
.	16ccJJ	.
(8e	4dd	.
8c)	.	.
(8cJ	16ccLL	.
.	16b-JJ)	.
=61	=61	=61
*	*^	*
8f'L)	(32aLLL	4r	.
.	32b-	.	.
.	32cc	.	.
.	32ddJJJ	.	>
(8f	4cc	.	.
8e	.	4g	.
8cJ)	8b-)	.	]]
!!LO:LB:g=z
=62	=62	=62	=62
8f'L	(32aLLL	4rA	.
.	32b-	.	.
.	32cc	.	.
.	32ddJJJ	.	.
(8f	4cc	.	>
8e	.	4g	.
8cJ	8b-	.	]]
*	*v	*v	*
=63	=63	=63
8f'L)	8a'L)	.
(8f	(8dd	mf
8e	8cc#	.
8dJ	8ddJ	.
=64	=64	=64
8c#L	8.eeL	.
8Bn	.	.
.	32ffLL	.
.	32ggJJJ	.
8A	8ffL	.
8c#J	8eeJ)	.
=65	=65	=65
.	(8ggq	.
8dL)	(16ffLL)	.
.	16eeJ	.
(<8DJ	8ddJ)	f
4DD')	8r	.
.	(8dd^	f
=66	=66	=66
8r	8aa'L)	.
(8d'L	8a' (8cc'	p
8d'	8g' 8b'	.
8d'J)	8f#' 8a'J)	.
=67	=67	=67
*	*^	*
8g'L	(32bLLL	4re	.
.	32cc	.	.
.	32dd	.	.
.	32eeJJJ	.	.
(8g	4dd	.	mf
8f#	.	4a	>
8dJ)	8cc)	.	]]
!!LO:LB:g=z
=68	=68	=68	=68
8g'L	(32bLLL	4r	.
.	32cc	.	.
.	32dd	.	.
.	32eeJJJ	.	.
(8g	4dd	.	>
8f#	.	4a	.
8dJ	8cc	.	.
*	*v	*v	*
=69	=69	=69
8g'L)	8b'L)	]
(8g	(8ee	mf
8f#	8dd#	.
8eJ	8eeJ	.
=70	=70	=70
8d#L	8.ff#L	.
8c#	.	.
.	32ggLL	.
.	32aaJJJ	.
8B	8ggL	.
8d#J	8ff#J)	.
=71	=71	=71
.	(8aaq	.
8eL)	(16ggLL)	.
.	16ff#J	.
(<8EJ	8eeJ)	f
4EE')	4r	.
=72	=72	=72
*	*	*^
.	(<16aaqq	.	.
!	!	!	!LO:DY:a:rj
8E (8dL	2ffn 2gg#)	p	f
*	*	*v	*v
*ped	*	*
8E' 8d'	.	.
8E' 8d'	.	.
8E' 8d'J)	.	.
=73	=73	=73
*Xped	*	*
.	(<16bbqq	.
(8E' 8c'L	2ee 2aa)	.
*ped	*	*
8E' 8c'	.	.
8E' 8c'	.	.
8E' 8c'J)	.	.
=74	=74	=74
*Xped	*	*
.	(<32cccqq	.
8E' 8G#'@ (8B'L	2dd 2bb)	.
*ped	*	*
8E' 8G#'@ 8B'	.	.
8E' 8G#'@ 8B'	.	.
8E' 8G#'@ 8B'J)	.	.
!!LO:LB:g=z
=75	=75	=75
*Xped	*	*
.	(<16dddqq	.
8AA' (8A'L	16ee (16cccLL)	.
.	16bbJ	.
*ped	*	*
8AA' 8A'	8aaJ)	.
8AA' 8A'	4r	.
8AA' 8A'J)	.	.
=76	=76	=76
*Xped	*	*
!	!	!LO:DY:a:rj
.	(<16cccqq	mf
8G' (8e'L	2cc# 2bb-)	.
*ped	*	*
8G' 8e'	.	.
8G' 8e'	.	.
8G 8eJ)	.	.
=77	=77	=77
*Xped	*	*
.	(<16bb-qq	.
8F' (8d'L	2dd 2aa)	.
*ped	*	*
8F' 8d'	.	.
8F' 8d'	.	.
8F' 8d'J)	.	.
=78	=78	=78
*Xped	*	*
.	(<16aaqq	.
8E' (8c#'L	2ee 2gg)	.
*ped	*	*
8E' 8c#'	.	.
8E' 8c#'	.	.
8E' 8c#'J)	.	.
=79	=79	=79
*Xped	*	*
4.D 4.d	(16ffLL	.
.	16dd	.
.	16aa	.
.	16ggJJ	.
.	16ffLL	.
.	16ee	.
(8F	16dd	.
.	16ccJJ	.
=80	=80	=80
8GL)	8b')	.
(8G 8B	(4aa	sf >
8A 8c)	.	.
8B' 8d'J	16ggLL	.
.	16ffJJ	]]
!!LO:LB:g=z
=81	=81	=81
(8C' 8c'L	4.ee	.
8C' 8c')	.	.
(8E' 8c'	.	.
8E' 8c'J)	16ffLL	.
.	16ggJJ	.
=82	=82	=82
8F' (8c'L	16ffLL	.
.	16ee	.
8F' 8c'J)	16dd	.
.	16ccJJ	.
(8A'L	8.ccTL	.
8A'J)	.	.
.	32bLL	.
.	32ccJJJ)	.
=83	=83	=83
.	(16ccqq	.
(8GL<	4dd)	>
8GGJ	.	.
4G)	8r	]
.	8gg'	p
=84	=84	=84
8r	(32eeLLL	.
.	32ff	.
.	32gg	.
.	32aaJJ	.
8C (8cL	8gg^J	.
8E' 8e')	8ccc'L)	.
8G' 8g'J	8gg'J	.
=85	=85	=85
8r	(32eeLLL	.
.	32ff	.
.	32gg	.
.	32aaJJ	.
8C (8cL	8gg^J	.
8E' 8e')	8ccc'L)	.
8G' 8g'J	8gg'J	.
*clefG2	*	*
=86	=86	=86
8c' 8cc'L	(16eeLL	.
.	16gg	.
(8fJ	16ff	.
.	16ddJJ	.
8g'L)	8ee'L)	.
8G'J	8dd'JM	.
*clefF4	*	*
!!LO:LB:g=z
=87	=87	=87
8r	4cc^	f
(8CC 8CL	.	.
8EE') 8E'	8r	.
8GG' 8G'J	8gg'	.
=88	=88	=88
8r	(32eeLLL	.
.	32ff	.
.	32gg	.
.	32aaJJ	.
(8CC 8CL	8gg^J	.
8EE) 8E	8ccc'L)	.
8GG' 8G'J	8gg'J	.
=89	=89	=89
8r	(32eeLLL	.
.	32ff	.
.	32gg	.
.	32aaJJ	.
(8CC 8CL	8gg^J	.
8EE) 8E	8ccc'L)	.
8GG' 8G'J	8gg'J	.
=90	=90	=90
8C' 8c'L	(16eeLL	.
.	16gg	.
(8FJ	16ff	.
.	16ddJJ	.
8G'L<)	8ee'L)	.
8GG'J	8dd'JM	sf
=91	=91	=91
4CC' 4C'	(8cc'L	f
.	16eeL	.
.	16ffJJ	.
8r	16ggLL	.
.	16cc	.
8G' 8g'	16dd	.
.	16bJJ	.
=92	=92	=92
8E' 8e'L	8cc'L)	.
8C' 8c'J	(16eeL	.
.	16ffJJ	.
8r	16ggLL	.
.	16cc	.
8G' 8g'	16dd	.
.	16bJJ	.
!!LO:LB:g=z
=93	=93	=93
8E' 8e'L	8cc'L)	.
8C' 8c'J	(16ddL	.
.	16eeJJ	.
8r	16ffLL	.
.	16gg	.
8DD' 8D'	16aa	.
.	16bbJJ	.
=94	=94	=94
8EE' 8E'L	16cccLL	.
.	16gg	.
8FF' 8F'	16aa	.
.	16ffJJ	.
8GG' 8G'	16eeLL	.
.	16ccc	.
8FF' 8F'J	16dd	.
.	16bbJJ	.
=95	=95	=95
8EE' 8E'L	16cccLL	.
.	16gg	.
8FF' 8F'	16aa	.
.	16ffJJ	.
8GG' 8G'	16eeLL	.
.	16ccc	.
8FF' 8F'J	16dd	.
.	16bbJJ	.
=96	=96	=96
8EE' 8E'L	16cccLL	.
.	16gg	.
8FF' 8F'	16aa	.
.	[16ccJJ)	.
8GG' 8G'	8ccL]	.
8FF' 8F'J	8b'Jm	.
=97	=97	=97
8EE' 8E'L	(16ccLL	.
.	16g	.
8FF' 8F'	16a	.
.	[16cJJ)	.
8GG' 8G'	8cL]	.
8GG'J	8B'Jm<	.
=98	=98	=98
.	(8Bqq	.
4CC^ 4C^	4c)	.
4r	4r	.
==	==	==
*-	*-	*-
!!!RDF**kern: > = above
!!!RDF**kern: < = below
!!!RDF**kern: @ = marked note, color="silver", optional note
!!!URL-vhv: https://verovio.humdrum.org/?file=scarlatti/sonatas/L054K200.krn
!!!URL-pdf: https://github.com/craigsapp/scarlatti-keyboard-sonatas/blob/master/reference-edition/L054K200.pdf
!!!PTL: Domenico Scarlatti: Opere complete per clavicembalo
!!!PED: Longo, Alessandro
!!!PPR: Ricordi
!!!PPP: Milan
!!!PDT: 1906-1913
!!!YEC: 2021 Craig Stuart Sapp
!!!YEM: Licence: (CC BY-NC-SA 4.0) https://creativecommons.org/licenses/by-nc-sa/4.0
!!!ENC: Craig Stuart Sapp
!!!END: 2004/06/20
!!!EED: Craig Stuart Sapp
!!!EEV: 2020/12/18
